X: 1652
T: Kitty Come
B: australian traditional tunes wiki
M:2/4
L:1/8
R: Polka
Q: 1/4=100
K:G
V:1 
A|"G"Bd G>F|GBD2|"C"Ec ED|"Am"E3F/E/|"D7"DF AB|cA EF|"G"GD GB|"D7"D3-D>A|
"G"Bd G>F|GBD2|"C"Ec ED|"A7"E3F/E/|"D7"DF AB|cA EF|"G"GD "D7"GA|"G"G3||
% abcbook-tune_id 6342d53a6e4f3ac3e468216b


% abcbook-boost 0
% abcbook-tablature 
% abcbook-transpose 
% abcbook-lastupdated 1665324376144
% abcbook-soundfonts 
% abcbook-repeats 1
% NFF Book 2022
% Bush Traditions recording played by Ray Mulligan

